Quickit/src/img/icons/fb.svg

<svg width="13" height="20" viewBox="0 0 13 20" fill="none" xmlns="http://www.w3.org/2000/svg">
<path fill-rule="evenodd" clip-rule="evenodd" d="M4.75736 1.75736C5.88258 0.632141 7.4087 0 9 0H12C12.5523 0 13 0.447715 13 1V5C13 5.55228 12.5523 6 12 6H9V7H12C12.3079 7 12.5987 7.14187 12.7882 7.38459C12.9777 7.6273 13.0448 7.94379 12.9701 8.24254L11.9701 12.2425C11.8589 12.6877 11.4589 13 11 13H9V19C9 19.5523 8.55228 20 8 20H4C3.44772 20 3 19.5523 3 19V13H1C0.447715 13 0 12.5523 0 12V8C0 7.44772 0.447715 7 1 7H3V6C3 4.4087 3.63214 2.88258 4.75736 1.75736ZM9 2C7.93913 2 6.92172 2.42143 6.17157 3.17157C5.42143 3.92172 5 4.93913 5 6V8C5 8.55228 4.55228 9 4 9H2V11H4C4.55228 11 5 11.4477 5 12V18H7V12C7 11.4477 7.44772 11 8 11H10.2192L10.7192 9H8C7.44772 9 7 8.55228 7 8V6C7 5.46957 7.21071 4.96086 7.58579 4.58579C7.96086 4.21071 8.46957 4 9 4H11V2H9Z" fill="#1F2025"/>
</svg>

<svg xmlns="http://www.w3.org/2000/svg" width="13" height="20" fill="none" xmlns:v="https://vecta.io/nano"><path fill-rule="evenodd" d="M4.757 1.757A6 6 0 0 1 9 0h3a1 1 0 0 1 1 1v4a1 1 0 0 1-1 1H9v1h3a1 1 0 0 1 .97 1.243l-1 4A1 1 0 0 1 11 13H9v6a1 1 0 0 1-1 1H4a1 1 0 0 1-1-1v-6H1a1 1 0 0 1-1-1V8a1 1 0 0 1 1-1h2V6a6 6 0 0 1 1.757-4.243zM9 2a4 4 0 0 0-4 4v2a1 1 0 0 1-1 1H2v2h2a1 1 0 0 1 1 1v6h2v-6a1 1 0 0 1 1-1h2.219l.5-2H8a1 1 0 0 1-1-1V6a2 2 0 0 1 2-2h2V2H9z" fill="#1f2025"/></svg>
